X: 152
T:RIDEE 6 TEMPS N 3
M:4/4
L:1/4
Q:1/4=150
Z:Yves BELOTTEAU
K:G
% Last note suggests Dorian mode tune
|GGAB3/2 z/2 Bdc|BAGF GA3/2 z/2 A|cBAB3/2 z/2 GGG|AB3/2 z/2 B dcBA|
GFGA3/2 z/2 AcB|AB3/2 z/2 G G3/2 z/2 GD|GG/2G/2GA B3/2 z/2 BB|dBAB A3/2
z/2 GD|
GG/2G/2GA B3/2 z/2 BB|dBAB A3/2 z/2 GD|GG/2G/2GA B3/2 z/2 BB|dBAB A3/2 z
/2 GD|
GG/2G/2GA B3/2 z/2 BB|dBAB A3/2|
W:
W: From "Falaleiro" http://home.t-online.de/home/pheld/homepage.htm

